src/assets/duotone/Python.svg

<svg width="24" height="24" viewBox="0 0 24 24"  xmlns="http://www.w3.org/2000/svg">
<path d="M15.02 2.23055C13.02 1.92055 10.9801 1.92055 8.98006 2.23055C8.16006 2.36055 7.56005 3.06054 7.56005 3.88054V7.56054H3.88005C3.06005 7.56054 2.36006 8.16055 2.23006 8.98055C1.92006 10.9805 1.92006 13.0205 2.23006 15.0205C2.36006 15.8405 3.06005 16.4405 3.88005 16.4405H7.56005V14.2205C7.56005 12.9905 8.55005 12.0005 9.78005 12.0005H14.22C15.45 12.0005 16.4401 11.0005 16.4401 9.78054V3.88054C16.4401 3.06054 15.84 2.36055 15.02 2.23055ZM10.33 5.58055C9.92003 5.58055 9.52004 5.19054 9.52004 4.77054C9.52004 4.35054 9.91003 3.97054 10.33 3.97054C10.52 3.97054 10.7501 4.06055 10.8901 4.19055C11.0401 4.33055 11.1401 4.57054 11.1401 4.77054C11.1401 5.19054 10.75 5.58055 10.33 5.58055Z" />
<path opacity="0.4" d="M21.7701 8.98055C21.64 8.16055 20.9401 7.56055 20.1201 7.56055H16.4401V9.78055C16.4401 11.0005 15.4501 12.0005 14.2201 12.0005H9.78006C8.55006 12.0005 7.56006 12.9906 7.56006 14.2206V20.1206C7.56006 20.9406 8.16007 21.6405 8.98007 21.7705C10.9801 22.0805 13.0201 22.0805 15.0201 21.7705C15.84 21.6405 16.4401 20.9406 16.4401 20.1206V16.4406H20.1201C20.9401 16.4406 21.64 15.8405 21.7701 15.0205C22.0801 13.0205 22.0801 10.9806 21.7701 8.98055ZM13.6701 20.0305C13.2601 20.0305 12.86 19.6406 12.86 19.2206C12.86 18.8006 13.2501 18.4106 13.6701 18.4106C13.8601 18.4106 14.0901 18.5005 14.2301 18.6305C14.3801 18.7705 14.4801 19.0105 14.4801 19.2105C14.4701 19.6405 14.0801 20.0305 13.6701 20.0305Z" />
</svg>

<?xml version="1.0" encoding="UTF-8"?>
<svg width="24" height="24" viewBox="0 0 24 24" xmlns="http://www.w3.org/2000/svg">
 <path d="m15.02 2.2306c-2-0.31-4.0399-0.31-6.0399 0-0.82 0.13-1.42 0.82999-1.42 1.65v3.68h-3.68c-0.82 0-1.52 0.60001-1.65 1.42-0.31 2-0.31 4.04 0 6.04 0.13 0.82 0.82999 1.42 1.65 1.42h3.68v-2.22c0-1.23 0.99-2.22 2.22-2.22h4.44c1.23 0 2.2201-1 2.2201-2.22v-5.9c0-0.82-0.6001-1.52-1.4201-1.65zm-4.69 3.35c-0.40997 0-0.80996-0.39001-0.80996-0.81001s0.38999-0.8 0.80996-0.8c0.19 0 0.4201 0.09001 0.5601 0.22001 0.15 0.14 0.25 0.37999 0.25 0.57999 0 0.42-0.3901 0.81001-0.8101 0.81001z"/>
 <path d="m21.77 8.9806c-0.1301-0.82-0.83-1.42-1.65-1.42h-3.68v2.22c0 1.22-0.99 2.22-2.22 2.22h-4.44c-1.23 0-2.22 0.9901-2.22 2.2201v5.9c0 0.82 0.60001 1.5199 1.42 1.6499 2 0.31 4.04 0.31 6.04 0 0.8199-0.13 1.42-0.8299 1.42-1.6499v-3.68h3.68c0.82 0 1.5199-0.6001 1.65-1.4201 0.31-2 0.31-4.0399 0-6.04zm-8.1 11.05c-0.41 0-0.8101-0.3899-0.8101-0.8099s0.3901-0.81 0.8101-0.81c0.19 0 0.42 0.0899 0.56 0.2199 0.15 0.14 0.25 0.38 0.25 0.58-0.01 0.43-0.4 0.82-0.81 0.82z" opacity=".4"/>
</svg>
